flaticon/files-and-folders/clipboard-19.svg

<svg xmlns="http://www.w3.org/2000/svg" width="32" height="32" viewBox="0 0 24 24">
    <path d="M 18.398438 2.800781 L 16.398438 2.800781 L 16.398438 2.398438 C 16.398438 1.960938 16.039062 1.601562 15.601562 1.601562 L 14.398438 1.601562 L 14.398438 1.199219 C 14.398438 0.519531 13.878906 0 13.199219 0 L 10.800781 0 C 10.121094 0 9.601562 0.558594 9.601562 1.199219 L 9.601562 1.601562 L 8.398438 1.601562 C 7.960938 1.601562 7.601562 1.960938 7.601562 2.398438 L 7.601562 2.800781 L 5.601562 2.800781 C 4.480469 2.800781 3.601562 3.679688 3.601562 4.800781 L 3.601562 22 C 3.601562 23.121094 4.480469 24 5.601562 24 L 18.398438 24 C 19.519531 24 20.398438 23.121094 20.398438 22 L 20.398438 4.800781 C 20.398438 3.679688 19.519531 2.800781 18.398438 2.800781 Z M 8.398438 2.398438 L 10 2.398438 C 10.238281 2.398438 10.398438 2.238281 10.398438 2 L 10.398438 1.199219 C 10.398438 0.960938 10.558594 0.800781 10.800781 0.800781 L 13.199219 0.800781 C 13.441406 0.800781 13.601562 1 13.601562 1.199219 L 13.601562 2 C 13.601562 2.238281 13.761719 2.398438 14 2.398438 L 15.601562 2.398438 L 15.601562 5.199219 L 8.398438 5.199219 Z M 19.601562 22 C 19.601562 22.679688 19.078125 23.199219 18.398438 23.199219 L 5.601562 23.199219 C 4.921875 23.199219 4.398438 22.679688 4.398438 22 L 4.398438 4.800781 C 4.398438 4.121094 4.921875 3.601562 5.601562 3.601562 L 7.601562 3.601562 L 7.601562 5.199219 C 7.601562 5.640625 7.960938 6 8.398438 6 L 15.601562 6 C 16.039062 6 16.398438 5.640625 16.398438 5.199219 L 16.398438 3.601562 L 18.398438 3.601562 C 19.078125 3.601562 19.601562 4.121094 19.601562 4.800781 Z M 19.601562 22"/>
    <path d="M 14.800781 11.601562 C 14.800781 10.039062 13.558594 8.800781 12 8.800781 C 10.441406 8.800781 9.199219 10.039062 9.199219 11.601562 L 9.199219 12 L 7.601562 12 L 7.601562 19.199219 L 16.398438 19.199219 L 16.398438 12 L 14.800781 12 Z M 10 11.601562 C 10 10.480469 10.878906 9.601562 12 9.601562 C 13.121094 9.601562 14 10.480469 14 11.601562 L 14 12 L 10 12 Z M 15.601562 12.800781 L 15.601562 18.398438 L 8.398438 18.398438 L 8.398438 12.800781 Z M 15.601562 12.800781"/>
    <path d="M 11.601562 16.75 L 11.601562 17.199219 C 11.601562 17.441406 11.761719 17.601562 12 17.601562 C 12.238281 17.601562 12.398438 17.441406 12.398438 17.199219 L 12.398438 16.75 C 13.089844 16.570312 13.601562 15.941406 13.601562 15.199219 C 13.601562 14.320312 12.878906 13.601562 12 13.601562 C 11.121094 13.601562 10.398438 14.320312 10.398438 15.199219 C 10.398438 15.941406 10.910156 16.570312 11.601562 16.75 Z M 12 14.398438 C 12.441406 14.398438 12.800781 14.761719 12.800781 15.199219 C 12.800781 15.640625 12.441406 16 12 16 C 11.558594 16 11.199219 15.640625 11.199219 15.199219 C 11.199219 14.761719 11.558594 14.398438 12 14.398438 Z M 12 14.398438"/>
</svg>

<svg xmlns="http://www.w3.org/2000/svg" width="32" height="32" viewBox="0 0 24 24">
    <path d="M18.398 2.8h-2v-.402a.8.8 0 0 0-.796-.796h-1.204v-.403C14.398.52 13.878 0 13.2 0h-2.398c-.68 0-1.2.559-1.2 1.2v.402H8.399a.8.8 0 0 0-.796.796v.403h-2c-1.122 0-2 .879-2 2V22c0 1.121.878 2 2 2h12.796c1.122 0 2-.879 2-2V4.8c0-1.12-.878-2-2-2zm-10-.402H10c.238 0 .398-.16.398-.398v-.8c0-.24.16-.4.403-.4h2.398a.4.4 0 0 1 .403.4V2c0 .238.16.398.398.398h1.602V5.2H8.398zM19.602 22c0 .68-.524 1.2-1.204 1.2H5.602A1.18 1.18 0 0 1 4.398 22V4.8c0-.679.524-1.198 1.204-1.198h2v1.597c0 .442.359.801.796.801h7.204c.437 0 .796-.36.796-.8V3.601h2c.68 0 1.204.52 1.204 1.199zm0 0"/>
    <path d="M14.8 11.602C14.8 10.039 13.56 8.8 12 8.8a2.783 2.783 0 0 0-2.8 2.8V12H7.601v7.2h8.796V12h-1.597zm-4.8 0c0-1.122.879-2 2-2s2 .878 2 2V12h-4zm5.602 1.199v5.597H8.398v-5.597zm0 0"/>
    <path d="M11.602 16.75v.45c0 .241.16.402.398.402.238 0 .398-.16.398-.403v-.449a1.608 1.608 0 0 0 1.204-1.55c0-.88-.723-1.598-1.602-1.598-.879 0-1.602.718-1.602 1.597 0 .742.512 1.371 1.204 1.551zM12 14.398a.802.802 0 1 1-.8.8c0-.436.359-.8.8-.8zm0 0"/>
</svg>
